X: 14388
T: Galway Bay
R: waltz
M: 3/4
K: Gmajor
D2|G4 B2|d4 g2|e3 f e2|d4 BA|B3 ^A B2|G4 G2|G6-|G4 B2|
d4 f2|a3 b a2|g4 B2|c4 d2|e4 g2|g2 (3fgf e2|d6-|d2 B2 c2|d4 f2|a3 b a2|g4 B2|c4 d2|e4 g2|g2 f2 e2|d6-|d2 B2 A2|
G4 B2|d4 g2|e6|d4 BA|B3 ^A B2|G4 F2|G6-|G4||

